src/pos-icons/mailbox-up-outline.svg

<svg height="24" viewBox="0 0 24 24" width="24" xmlns="http://www.w3.org/2000/svg"><path d="m17 4h-10a5 5 0 0 0 -5 5v11h18a2 2 0 0 0 2-2v-9a5 5 0 0 0 -5-5m-7 14h-6v-9a3 3 0 0 1 3-3 3 3 0 0 1 3 3zm10 0h-8v-9c0-1.08-.35-2.14-1-3h6a3 3 0 0 1 3 3zm-7-5h2v-4h2v-2h-4zm-4-2h-4v-2h4z"/></svg>

<?xml version="1.0" encoding="UTF-8"?><!DOCTYPE svg PUBLIC "-//W3C//DTD SVG 1.1//EN" "http://www.w3.org/Graphics/SVG/1.1/DTD/svg11.dtd"><svg xmlns="http://www.w3.org/2000/svg" xmlns:xlink="http://www.w3.org/1999/xlink" version="1.1" id="mdi-mailbox-up-outline" width="24" height="24" viewBox="0 0 24 24"><path d="M17,4H7A5,5 0 0,0 2,9V20H20A2,2 0 0,0 22,18V9A5,5 0 0,0 17,4M10,18H4V9A3,3 0 0,1 7,6A3,3 0 0,1 10,9V18M20,18H12V9C12,7.92 11.65,6.86 11,6H17A3,3 0 0,1 20,9V18M13,13H15V9H17V7H13V13M9,11H5V9H9V11Z" /></svg>
